X: 2
T: Gan Ainm
M: 2/4
L: 1/8
R: polka
K: Amaj
e>d |:\ 
cA AB | cd e2 | fd ec | df e>d |
cA AB | cd e2 | fd ec | de/d/ cB :|
|: AB/A/ GE | FD DF | EF G/F/E | Ac ec |
AB/A/ GE | FD- DF | EF G/F/E |[1 A2 AE :|[2 A2 AB |]
